symbolic/24x24/apps/com.github.plugarut.pwned-checker.svg

<svg xmlns="http://www.w3.org/2000/svg" width="24" height="24" version="1"><rect style="fill:#4b5b69" width="20" height="20" x="2" y="2" rx="1" ry="1"/><path style="opacity:.2" d="M5 6.5v3h1v-3H5zm4 3a1 1 0 0 0-1 1 1 1 0 0 0 1 1 1 1 0 0 0 1-1 1 1 0 0 0-1-1zm3 3v1h3v-1h-3zm4 0v1h3v-1h-3zm-7 1a1 1 0 0 0-1 1 1 1 0 0 0 .678.945L8.432 16.5h.884c.405-.62.786-1.215.684-2a1 1 0 0 0-1-1z"/><path style="fill:#fff" d="M5 6v3h1V6H5zm4 3a1 1 0 0 0-1 1 1 1 0 0 0 1 1 1 1 0 0 0 1-1 1 1 0 0 0-1-1zm3 3v1h3v-1h-3zm4 0v1h3v-1h-3zm-7 1a1 1 0 0 0-1 1 1 1 0 0 0 .678.945L8.432 16h.884c.405-.62.786-1.215.684-2a1 1 0 0 0-1-1z"/><path style="opacity:.1;fill:#fff" d="M3 2c-.554 0-1 .446-1 1v.5c0-.554.446-1 1-1h18c.554 0 1 .446 1 1V3c0-.554-.446-1-1-1z"/><path style="opacity:.2" d="M3 22.5c-.554 0-1-.446-1-1V21c0 .554.446 1 1 1h18c.554 0 1-.446 1-1v.5c0 .554-.446 1-1 1z"/></svg>

<svg xmlns="http://www.w3.org/2000/svg" width="24" height="24" version="1">
 <rect style="fill:#4b5b69" width="20" height="20" x="2" y="2" rx="1" ry="1"/>
 <path style="opacity:0.2" d="M 5 6.5 L 5 9.5 L 6 9.5 L 6 6.5 L 5 6.5 z M 9 9.5 A 1 1 0 0 0 8 10.5 A 1 1 0 0 0 9 11.5 A 1 1 0 0 0 10 10.5 A 1 1 0 0 0 9 9.5 z M 12 12.5 L 12 13.5 L 15 13.5 L 15 12.5 L 12 12.5 z M 16 12.5 L 16 13.5 L 19 13.5 L 19 12.5 L 16 12.5 z M 9 13.5 A 1 1 0 0 0 8 14.5 A 1 1 0 0 0 8.6777344 15.445312 L 8.4316406 16.5 L 9.3164062 16.5 C 9.7207774 15.880297 10.101556 15.285239 10 14.5 A 1 1 0 0 0 9 13.5 z"/>
 <path style="fill:#ffffff" d="M 5 6 L 5 9 L 6 9 L 6 6 L 5 6 z M 9 9 A 1 1 0 0 0 8 10 A 1 1 0 0 0 9 11 A 1 1 0 0 0 10 10 A 1 1 0 0 0 9 9 z M 12 12 L 12 13 L 15 13 L 15 12 L 12 12 z M 16 12 L 16 13 L 19 13 L 19 12 L 16 12 z M 9 13 A 1 1 0 0 0 8 14 A 1 1 0 0 0 8.6777344 14.945312 L 8.4316406 16 L 9.3164062 16 C 9.7207774 15.380297 10.101556 14.785239 10 14 A 1 1 0 0 0 9 13 z"/>
 <path style="opacity:0.1;fill:#ffffff" d="M 3,2 C 2.446,2 2,2.446 2,3 v 0.5 c 0,-0.554 0.446,-1 1,-1 h 18 c 0.554,0 1,0.446 1,1 V 3 C 22,2.446 21.554,2 21,2 Z"/>
 <path style="opacity:0.2" d="m 3,22.5 c -0.554,0 -1,-0.446 -1,-1 V 21 c 0,0.554 0.446,1 1,1 h 18 c 0.554,0 1,-0.446 1,-1 v 0.5 c 0,0.554 -0.446,1 -1,1 z"/>
</svg>
